X:283
T: ICH GING EINST BEI DER NACHT
N: E0157C
O: Europa, Mitteleuropa, Deutschland, Kreis Wetzlar
R: erzaehlendes Volks - Lied, Scherz, Schwank
M: 3/4
L: 1/16
K: G
D2 | G2AcB4A4 | G4z6
AB | c2e2d4c2d2 | B4z6
d2 | B2d2d2ed | d2cBc2
d2 | B4d2B2 | B2AGA2
d2 | d2cBc2A2 | G4z6
d2 | B2d2d2ed | d2cBc2
d2 | B4d2B2 | B2AGA2
d2 | d2cBc2A2 | G4z6

